static/assets/images/networks/moonbeam.svg

<svg width="256" height="256" viewBox="0 0 256 256" fill="none" xmlns="http://www.w3.org/2000/svg">
<path d="M128 256C198.692 256 256 198.692 256 128C256 57.3075 198.692 0 128 0C57.3075 0 0 57.3075 0 128C0 198.692 57.3075 256 128 256Z" fill="black"/>
<path d="M201.323 173.35C201.352 169.376 216.485 169.546 216.382 165.83C216.308 162.965 209.606 163.032 211.712 156.97C214.815 147.939 216.5 138.243 216.5 128.154C216.5 79.1895 176.865 39.5 128 39.5C79.1207 39.5 39.5 79.1895 39.5 128.154C39.4899 138.187 41.1841 148.149 44.5099 157.614C45.7661 161.633 39.5148 163.21 39.5148 165.608C39.5148 169.368 52.6823 168.865 52.6823 173.232C52.6823 177.051 39.67 178.221 39.67 182.07C39.67 187.377 68.4951 185.527 68.8572 190.094C69.1454 193.624 58.9557 193.832 58.8892 197.599C58.7932 203.61 98.2365 201.641 98.2365 205.645C98.2365 208.673 80.2956 207.577 80.2956 211.152C80.2956 214.728 103.911 217 129.936 217C155.961 217 173.924 214.098 173.924 210.96C173.924 207.829 157.165 208.48 157.512 205.645C158.118 200.708 195.301 203.232 195.301 197.525C195.301 194.513 185.074 193.809 185.399 190.567C185.872 185.978 216.5 186.667 216.5 181.907C216.5 178.169 201.33 177.244 201.345 173.365L201.323 173.35ZM177.603 161.833C176.791 164.86 186.116 165.312 186.116 168.472C186.116 172.314 157.682 170.782 157.963 175.867C158.14 179.065 178.165 179.605 177.781 182.951C177.234 187.792 146.776 185.379 146.473 190.012C146.251 193.417 161.34 193.528 161.369 196.63C161.399 199.243 149.517 200.664 126.788 200.664C100.874 200.664 88.2907 199.265 89.7168 196.348C91.0542 193.624 113.99 194.128 113.761 189.842C113.525 185.564 73.0321 186.829 71.8055 182.677C70.7932 179.228 85.1134 178.517 85.0247 175.238C84.9286 171.9 66.6774 172.655 66.2784 168.613C66.0198 165.948 75.8178 166.126 75.3966 162.78C75.0863 160.352 71.037 160.693 68.6429 155.674C64.0278 145.694 61.9962 134.71 62.7356 123.736C63.475 112.762 66.9616 102.151 72.8737 92.8823C78.7859 83.6137 86.933 75.986 96.5636 70.7029C106.194 65.4198 116.998 62.6515 127.978 62.6535C138.742 62.6508 149.34 65.3104 158.831 70.3962C168.322 75.482 176.414 82.8366 182.386 91.8072C188.358 100.778 192.027 111.087 193.067 121.819C194.107 132.551 192.486 143.374 188.347 153.328C185.281 160.301 178.372 158.902 177.581 161.84H177.596L177.603 161.833Z" fill="white"/>
</svg>

<svg xmlns="http://www.w3.org/2000/svg" fill="none" viewBox="0 0 256 256"><path fill="#000" d="M128 256c70.692 0 128-57.308 128-128S198.692 0 128 0 0 57.308 0 128s57.308 128 128 128"/><path fill="#fff" d="M201.323 173.35c.029-3.974 15.162-3.804 15.059-7.52-.074-2.865-6.776-2.798-4.67-8.86 3.103-9.031 4.788-18.727 4.788-28.816C216.5 79.19 176.865 39.5 128 39.5c-48.88 0-88.5 39.69-88.5 88.654a88.6 88.6 0 0 0 5.01 29.46c1.256 4.019-4.995 5.596-4.995 7.994 0 3.76 13.167 3.257 13.167 7.624 0 3.819-13.012 4.989-13.012 8.838 0 5.307 28.825 3.457 29.187 8.024.288 3.53-9.901 3.738-9.968 7.505-.096 6.011 39.348 4.042 39.348 8.046 0 3.028-17.941 1.932-17.941 5.507 0 3.576 23.615 5.848 49.64 5.848s43.988-2.902 43.988-6.04c0-3.131-16.759-2.48-16.412-5.315.606-4.937 37.789-2.413 37.789-8.12 0-3.012-10.227-3.716-9.902-6.958.473-4.589 31.101-3.9 31.101-8.66 0-3.738-15.17-4.663-15.155-8.542zm-23.72-11.517c-.812 3.027 8.513 3.479 8.513 6.639 0 3.842-28.434 2.31-28.153 7.395.177 3.198 20.202 3.738 19.818 7.084-.547 4.841-31.005 2.428-31.308 7.061-.222 3.405 14.867 3.516 14.896 6.618.03 2.613-11.852 4.034-34.581 4.034-25.914 0-38.497-1.399-37.071-4.316 1.337-2.724 24.273-2.22 24.044-6.506-.236-4.278-40.729-3.013-41.955-7.165-1.013-3.449 13.307-4.16 13.219-7.439-.096-3.338-18.348-2.583-18.747-6.625-.258-2.665 9.54-2.487 9.119-5.833-.31-2.428-4.36-2.087-6.754-7.106a65.59 65.59 0 0 1 4.23-62.792 65.4 65.4 0 0 1 23.69-22.18 65.3 65.3 0 0 1 31.415-8.048 65.3 65.3 0 0 1 30.853 7.742 65.4 65.4 0 0 1 23.555 21.411 65.59 65.59 0 0 1 5.961 61.52c-3.066 6.974-9.975 5.575-10.766 8.513h.015z"/></svg>
